X: 35542
T: Running To Mull
R: three-two
M: 3/2
K: Cdorian
|:G,CDC DECE DCDE|G,CDC DECE DCB,C|
G,CDC DECE DCDE|1 FGGG G2FE DB,DE:|2 FGGG G2FE DFdB||
M:1/8
BccF Bcd d2c2|defe dcB d2c2|
BccF Bcd d2c2|defe dcB eBFB|
AccF Bcd d2c2|defe dcB d2c2|
AccF Bcd d2c2|defg fed .c2 .c2||

